!!!OTL: Des Lebens Tag.
!!!OTL-incipit: DES LEBENS TAG IST SCHWER UND SCHWUEL
!!!COM: J. Ab. P. Schulz
!!!ARE: Europa, Mitteleuropa, Deutschland
!!!SCT: F1048
!!!TXL: @@DE
!!!YEM: Copyright 1995, estate of Helmut Schaffrath.
**kern	**text
*ICvox	*
*clefG2	*
*M4/4	*
*met(c)	*
*k[f#c#g#d#]	*
*E:	*
!LO:TX:a:t=Langſam.	!
!LO:TX:a:t=P:only the highest voice encoded:problem	!
{4e	1._Des
=1	=1
4b/	Le-
4g#	-bens
4e	Tag
4g#	iſt
=2	=2
4b/	ſchwer
4g#	und
4e}	ſchwül,
{4b/	des
=3	=3
4ee	To-
4ee	-des
4dd#	O-
4g#	-dem
=4	=4
8.a/L	leicht
16b	.
8cc#J	.
8cc#/	und
4b/}	kühl
{4b/	er
=5	=5
4.b/	we-
8a	-het
8g#/L	freundlich
8eeJ	.
8dd#/L	.
8cc#J	.
=6	=6
4.b/	uns
8a	hin-
4g#}	-ab,
{4g#	wie
=7	=7
4f#	wel-
4g#	-kes
4a	Laub
4g#	in's
=8	=8
[>2f#	ſtil-
8f#L]	.
8aJ	.
8g#L	-le
8f#J	.
=9	=9
4e	Grab.
4r	.
4r}	.
==	==
!!!AGN: Trost - Lied, Tod
!!!ONB: ESAC (Essen Associative Code) Database: FINK
!!!AMT: simple quadruple
!!!AIN: vox
!!!EED: Helmut Schaffrath
!!!EEV: 1.0
!!Text: Fr. L. Gr. Z. Stolberg
!!!RDF**kern: > = above
!!!GTL: Trauer- Begraebniss- und Trostlieder
!!!URL-scan: https://www.digitale-sammlungen.de/en/view/bsb11144622?page=663
!!!ENC: Anna Maria Matuszewska
!!!EEV: 2024/08/09
*-	*-
